X: 18
T: the Mist-Covered Mountain
R: waltz, Jig
Z: John Chambers <jc:trillian.mit.edu>
D: De Danaan ________
M: 3/4
L: 1/8
K: ADor
G \
| "Am"E>AA ABd | e2A AGE | "G"G2G GAB | dBA GED \
| "Am"E>AA ABd | e2A "G"B^cd | "C"e>fg "G"dBG | "Em"BAG "Am"A3 :|
a \
| "Am"a>ge a2b | age edB | AGE "G"G2A | BAB deg \
| "Am"a>ge a2b | age edB | AGE "G"G2A | BAG "Am"A2 |]
a \
| "Am"a>ge a2b | age edB | AGE "G"G2A | BAB GED \
| "G"EDE G2A | BAG B^cd | "C"efg "G"dBG | "Em"BAG "Am"A3 |]
%%text Played as both waltz and jig.
%%sep 2 1 500
